Reading/media_Conding/Half_Adder.svg

<svg height="100" width="180" xmlns="http://www.w3.org/2000/svg"><g fill="none" stroke="#000" stroke-width="2" transform="translate(60 52)"><path d="m70 25h25"/><path d="m31 15h-31v-55"/><path d="m32 35h-52v-55"/><path d="m30 5v1.428 37.143 1.429h1.428 19.048c11.268 0 19.994-9 20.00019-20 0-10.999955-8.732091-19.9999998-20-20 0 0 0 0-19.047619 0zm2.857143 2.8571429h15.238095 2.083333.267858.029761c9.760663.0000001 16.666667 7.6399551 16.666667 17.1428571s-7.382195 17.142857-17.142857 17.142857h-17.142857z" fill="#000" stroke="none"/></g><g fill="none" stroke="#000" stroke-width="2" transform="translate(60.03125 -3.637817)"><path d="m70.100164 25.637817h25"/><path d="m31.100164 15.637817h-66"/><path d="m31.100164 35.637817h-66"/><g fill="#000" stroke="none" stroke-width="0" transform="translate(26.6 -38.862)"><path d="m-2.25 81.5c-1.597 2.644-2.25 3-2.25 3h-3.656l2-2.438c-.00025.000505 5.656-6.999549 5.656-17.562 0-10.563-5.656-17.563-5.656-17.563l-2-2.437h3.656c.78125.9375 1.421875 1.65625 2.21875 3 1.872719 3.099815 4.78125 9.026646 4.78125 17 0 7.95065-2.896697 13.879425-4.75 17.000005z"/><path d="m-2.406 44.5 2 2.437s5.656 7 5.656 17.563c0 10.562-5.656 17.562-5.656 17.562l-2 2.438h3.156 14c2.408 0 7.689.024 13.625-2.40625 5.935301-2.430764 12.536536-7.343266 17.6875-16.875l-1.3125-.71875 1.3125-.71875c-10.303113-19.06566-26.555926-19.28125-31.3125-19.28125h-14-3.15625zm5.87475 3h11.28125c4.684173 0 18.28685-.130207 27.96875 17-4.766786 8.429075-10.521281 12.68391-15.71875 14.8125-5.360661 2.195424-9.841925 2.187501-12.25 2.1875h-11.25c1.8735884-3.108434 4.75-9.04935 4.75-17 0-7.973354-2.9085314-13.900185-4.78125-17z"/></g></g><g font-family="DejaVu Sans" font-size="16"><text x="5.131" y="18">A</text><text x="5.131" y="38">B</text><text x="165.131" y="28">S</text><text x="165.131" y="83">C</text></g><g><path d="m15 27.5a2.5 2.5 0 1 1 -5 0 2.5 2.5 0 1 1 5 0z" transform="translate(47.631 -15.5)"/><path d="m15 27.5a2.5 2.5 0 1 1 -5 0 2.5 2.5 0 1 1 5 0z" transform="translate(27.506 4.5)"/></g><g fill="none" stroke="#000" stroke-width="2"><path d="m25 17.5a2.5 2.5 0 1 1 -5 0 2.5 2.5 0 1 1 5 0z" transform="translate(.131 -5.5)"/><path d="m25 17.5a2.5 2.5 0 1 1 -5 0 2.5 2.5 0 1 1 5 0z" transform="translate(.131 14.5)"/><path d="m25 17.5a2.5 2.5 0 1 1 -5 0 2.5 2.5 0 1 1 5 0z" transform="translate(135.131 4.5)"/><path d="m25 17.5a2.5 2.5 0 1 1 -5 0 2.5 2.5 0 1 1 5 0z" transform="translate(135.131 59.5)"/></g></svg>

<?xml version="1.0" encoding="UTF-8" standalone="no"?>
<svg xmlns="http://www.w3.org/2000/svg"
  width="180" height="100"
  version="1.0" >
  <defs >
  </defs>
  <g>
    <g transform="translate(60,52)"
	style="fill:none;stroke:#000;stroke-width:2;stroke-linecap:butt;stroke-linejoin:miter">
      <path d="M 70,25 C 90,25 95,25 95,25" />
      <path d="M 31,15 L 0,15 L 0,-40" />
      <path d="M 32,35 L -20,35 L -20,-20" />
      <g style="stroke-width:0;fill:#000;stroke:none" >
	<path
	  d="M 30,5 L 30,6.428 L 30,43.571 L 30,45 L 31.428,45 L 50.476,45 C 61.744,45 70.47,36.0 70.47619,25 C 70.47619,14.000045 61.744099,5.0000002 50.47619,5 C 50.47619,5 50.47619,5 31.428571,5 L 30,5 z M 32.857143,7.8571429 C 40.834264,7.8571429 45.918368,7.8571429 48.095238,7.8571429 C 49.285714,7.8571429 49.880952,7.8571429 50.178571,7.8571429 C 50.327381,7.8571429 50.409227,7.8571429 50.446429,7.8571429 C 50.465029,7.8571429 50.471543,7.8571429 50.47619,7.8571429 C 60.236853,7.857143 67.142857,15.497098 67.142857,25 C 67.142857,34.502902 59.760662,42.142857 50,42.142857 L 32.857143,42.142857 L 32.857143,7.8571429 z" />
      </g>
    </g>
    <g transform="translate(60.03125,-3.6378174)"
	style="fill:none;stroke:#000;stroke-width:2;stroke-linecap:butt;stroke-linejoin:miter">
      <path
       d="M 70.100164,25.637817 C 90.100164,25.637817 95.100164,25.637817 95.100164,25.637817" />
      <path
       d="M 31.100164,15.637817 L -34.899836,15.637817" />
      <path
       d="M 31.100164,35.637817 L -34.899836,35.637817" />
      <g transform="translate(26.600,-38.862)" style="stroke-width:0;fill:#000;stroke:none" >
	<path
	   d="M -2.25,81.500 C -3.847,84.144 -4.5,84.500 -4.5,84.500 L -8.156,84.500 L -6.156,82.062 C -6.15625,82.062505 -0.5,75.062451 -0.5,64.5 C -0.5,53.937 -6.156,46.937 -6.156,46.937 L -8.156,44.5 L -4.5,44.5 C -3.71875,45.4375 -3.078125,46.15625 -2.28125,47.5 C -0.408531,50.599815 2.5,56.526646 2.5,64.5 C 2.5,72.45065 -0.396697,78.379425 -2.25,81.500005 z" />
	<path
	   d="M -2.406,44.5 L -0.406,46.937 C -0.406,46.937 5.25,53.937 5.25,64.5 C 5.25,75.062 -0.406,82.062 -0.406,82.062 L -2.406,84.5 L 0.75,84.5 L 14.75,84.5 C 17.158,84.500 22.439,84.524 28.375,82.09375 C 34.310301,79.662986 40.911536,74.750484 46.0625,65.21875 L 44.75,64.5 L 46.0625,63.78125 C 35.759387,44.71559 19.506574,44.5 14.75,44.5 L 0.75,44.5 L -2.40625,44.5 z M 3.46875,47.5 L 14.75,47.5 C 19.434173,47.5 33.03685,47.369793 42.71875,64.5 C 37.951964,72.929075 32.197469,77.18391 27,79.3125 C 21.639339,81.507924 17.158075,81.500001 14.75,81.5 L 3.5,81.5 C 5.3735884,78.391566 8.25,72.45065 8.25,64.5 C 8.25,56.526646 5.3414686,50.599815 3.46875,47.5 z" />
      </g>
    </g>
    <g style="font-size:16px;font-family:DejaVu Sans" >
      <text x="5.131" y="18" >A</text>
      <text x="5.131" y="38" >B</text>
      <text x="165.131" y="28">S</text>
      <text x="165.131" y="83">C</text>
    </g>
    <g fill="#000" stroke="none" stroke-linejoin="miter" stroke-miterlimit="4">
      <path
	d="M 15,27.5 A 2.5,2.5 0 1 1 10,27.5 A 2.5,2.5 0 1 1 15,27.5 z"
	transform="translate(47.631,-15.5)" />
      <path
	d="M 15,27.5 A 2.5,2.5 0 1 1 10,27.5 A 2.5,2.5 0 1 1 15,27.5 z"
	transform="translate(27.506,4.5)" />
    </g>
    <g fill="none" stroke="#000" stroke-width="2" stroke-linejoin="miter" stroke-miterlimit="4">
      <path
	d="M 25,17.5 A 2.5,2.5 0 1 1 20,17.5 A 2.5,2.5 0 1 1 25,17.5 z"
	transform="translate(0.131,-5.5)" />
      <path
	d="M 25,17.5 A 2.5,2.5 0 1 1 20,17.5 A 2.5,2.5 0 1 1 25,17.5 z"
	transform="translate(0.131,14.5)" />
      <path
	d="M 25,17.5 A 2.5,2.5 0 1 1 20,17.5 A 2.5,2.5 0 1 1 25,17.5 z"
	transform="translate(135.131,4.5)" />
      <path
	d="M 25,17.5 A 2.5,2.5 0 1 1 20,17.5 A 2.5,2.5 0 1 1 25,17.5 z"
	transform="translate(135.131,59.5)" />
    </g>
  </g>
</svg>
